**kern	**kern
*part1	*part1
*staff2	*staff1
*I"Piano	*
*clefF4	*clefG2
*k[b-e-a-d-]	*k[b-e-a-d-]
=1	=1
4CC-X 4C-X	4A-] 4e-
8BBB- 8BB-	8dn
4.FF-X 4.F-X	4.A- 4.d-X 4.a-
=	=
4.EE- 4.E-	4.c-X 4.e- 4.a-
4.DD- 4.D-	4A- 4e- 4g-X
.	8Gn 8d- 8f-X
=	=
2.AAA- 2.AA-	4.A- 4.c 4.e-
.	(4B--^ 4d- 4e-
.	8G
=	=
2.AAA- 2.AA-	4.A-) 4.c 4.e-
.	(4B--^ 4d- 4e-
.	8Gn
=	=
8AAA-L 8AA-	4.A-) 4.c 4.e-
8C	.
8D-J	.
=:|!	=:|!
4AAA- 4AA-	4A- 4c 4e-
8r	8r
[4.AAA- [4.AA-	[4.c [4.e- [4.a-
=	=
2.AAA-] 2.AA-]	2.c] 2.e-] 2.a-]
==	==
*-	*-
!!!system-decoration: {(s1,s2)}
